X: 24160
T: Loophead Lighthouse
R: reel
M: 4/4
K: Bdorian
B2FE Fddd|deed cBAF|~A3E FEA2|FEAE FAAc|
B2FE Fddd|deed cBce|f2ed cBe2|1 dcBA BcAc:|2 dcBA Bcde||
~f3e afff|dfff afed|c2Bc AEEE|~A3B ceea|
~f3e afff|dfff afed|ceee ~f3a|1 afed Bcde:|2 afed Bddc||
"Last time" afec fe (3cBA|B4 z4||

